X:1
T: Mr. James Ramsay
C:J. Anderson
R:Strathspey
Q: 128
K:A
M:4/4
L:1/16
|:A,3A c3A d3B c3A|E3A dcBA GB3 B4|A,3A c3A d3B ca3|e3c BcdB cA3 A4|
A,3A c3A d3B c3A|E3A dcBA GB3 B4|A,3A c3A d3B ca3|e3c BcdB cA3 A4|
a3g a3e c3A E3e|a3g a3c GB3 B4|a3g a3e ce3 a3A|d3c Bfed cA3 A4|
a3g a3e c3A c3A|A,3A dcBA GB3 B4|A3E C3E D3F E3c|d3c Bfed cA3 A4:|
